!!!COM: Bach, Johann Sebastian
!!!OTL: 258. Meine Augen schliess' ich jetzt
!!!ONM: No. 258
!!!OCL: Erk
!!!SCA: BWV 378
!!!YOE: Riemenschneider, Albert
!!!OPR: 371 Harmonized Chorales and 69 Chorale Melodies with Figured Bass
!!!OPT: Bach Chorale Harmonizations
**kern	**kern	**kern	**kern	**harm	**root
!bass	!tenor	!alto	!sprno	!	!
*Iorgan	*Iorgan	*Iorgan	*Iorgan	*Iorgan	*Iorgan
*k[f#]	*k[f#]	*k[f#]	*k[f#]	*k[f#]	*k[f#]
*G:	*G:	*G:	*G:	*G:	*G:
*met(C)	*met(C)	*met(C)	*met(C)	*met(C)	*met(C)
*M4/4	*M4/4	*M4/4	*M4/4	*M4/4	*M4/4
*MM60	*MM60	*MM60	*MM60	*MM60	*MM60
8GG	8B	4d	4g	I	4GG
8AA	8A	.	.	.	.
=1	=1	=1	=1	=1	=1
8BB	4G	4d	4g	Ib	4GG
8C	.	.	.	.	.
8D	4F#	4A	4d	V	4DD
8C	.	.	.	.	.
4BB	4G	4d	4g	Ib	4GG
4AA	4c	8e	4a	viiob	4FF#
.	.	8f#	.	.	.
=2	=2	=2	=2	=2	=2
2GG;	2d;	2g;	2b;	I;	2.GG;
4r	4r	4r	4r	.	.
4BB	4d	[4g	4dd	Ib	4GG
=3	=3	=3	=3	=3	=3
4.C	4c	8g]	4ee	IV	4CC
.	.	8f#	.	.	.
.	4d	[4g	4dd	Ib	4GG
8BB	.	.	.	.	.
4AA	8e	8g]	4.cc	ii7	4AA
.	16d	16f#	.	.	.
.	16c	16e	.	.	.
4DD	4d	4f#	.	V	4DD
.	.	.	8dd	.	.
=4	=4	=4	=4	=4	=4
2GG;	2d;	2g;	2b;	I;	2GG;
4r	4r	4r	4r	r	4r
4GG	4B	[4g	4dd	I	4GG
=5	=5	=5	=5	=5	=5
4AA	4c	8g]	4cc	viiob	4FF#
.	.	8f#	.	.	.
8BB	4d	[4g	4b	Ib	4GG
8C	.	.	.	.	.
4D	[4d	8g]	4a	V	4DD
.	.	8f#	.	.	.
4E	8d]	8g	4g	viiob/V	4CC#
.	8c#	8G	.	.	.
=6	=6	=6	=6	=6	=6
2D;	2f#;	2d;	2a;	V;	2DD;
4r	4r	4r	4r	r	4r
4D#	4B	4f#	4b	Vb/vi	4BB
=7	=7	=7	=7	=7	=7
4.E	4B	8f#	4g	vi	4EE
.	.	16e	.	.	.
.	.	16f#	.	.	.
.	8e	8g	4cc	IVb	8CC
8F#	8d	[8a	.	V7b	8DD
4G	4d	8a]	4b	I	4GG
.	.	8g	.	.	.
4D	8.d	8g	4a	V	4DD
.	.	8f#	.	.	.
.	16c	.	.	.	.
=8	=8	=8	=8	=8	=8
2GG;	2B;	2d;	2g;	I;	2GG;
4r	4r	4r	4r	r	4r
8GG	4d	4g	8b	I	4GG
8AA	.	.	8cc	.	.
=9	=9	=9	=9	=9	=9
!!linebreak: 2
4.BB	8d	4g	4dd	Ib	4GG
.	8c	.	.	.	.
.	4B	4g	4dd	Ib	8GG
8E	.	.	.	vi7	8EE
4AA	4c	8g	4cc	ii7	4AA
.	.	8f#	.	.	.
8BB	4d	4g	4b	Ib	4GG
8C	.	.	.	.	.
=10	=10	=10	=10	=10	=10
2D;	2d;	4g	2a;	V;	2DD;
.	.	4f#;	.	.	.
4r	4r	4r	4r	r	4r
4D#	4B	4f#	4b	Vb/vi	4BB
=11	=11	=11	=11	=11	=11
8E	8B	4e	4g	vi	4EE
8Dn	8c	.	.	.	.
8C	4d	4d	4g	Ib	4GG
8BB	.	.	.	.	.
8C	4c	4e	4a	iib	4AA
8BB	.	.	.	.	.
8AA	[4B	4e	4b	Vb/ii	4EE
8GG#	.	.	.	.	.
=12	=12	=12	=12	=12	=12
8AA	8B]	2e	2cc	ii	4AA
8BB	16A	.	.	.	.
.	16G#	.	.	.	.
8C	4A	.	.	iib	4AA
8D	.	.	.	.	.
4E;	8A	4e;	4b;	VI;	4EE;
.	8G#;	.	.	.	.
4BB	4Gn	8d	4dd	Vb/IV	4GG
.	.	8fn	.	.	.
=13	=13	=13	=13	=13	=13
4C	4G	8e	4cc	IV	4CC
.	.	4g	.	.	.
4D	4d	.	4a	V	4DD
.	.	8f#y	.	.	.
8G	4d	4g	4b	I	4GG
8F#	.	.	.	.	.
4E	4e	4g	4cc	IVb	4CC
=14	=14	=14	=14	=14	=14
2BB;	2d;	2g;	2dd;	Ib;	2GG;
4r	4r	4r	4r	r	4r
8E	4B	[4e	4g	vi	4EE
8D	.	.	.	.	.
=15	=15	=15	=15	=15	=15
4C	8c	8e]	4a	iib	8AA
.	8d	8f#	.	V7d	8DD
8BB	8d	[4g	4b	Ib	8GG
8E	16e	.	.	vi	8EE
.	16d	.	.	.	.
4AA	4c	8g]	4cc	viiob	4FF#
.	.	8f#	.	.	.
8BB	4d	4g	4b	Ib	4GG
8GG	.	.	.	.	.
=16	=16	=16	=16	=16	=16
4C	4e	8g	2a	ii7b	4AA
.	.	16f#	.	.	.
.	.	16e	.	.	.
4D	8.d	4f#	.	V	4DD
.	16c	.	.	.	.
4GG;	4B;	4d;	4g;	I;	4GG;
==	==	==	==	==	==
*-	*-	*-	*-	*-	*-
!!!CDT: 1685/3//-1750/7/28
!!!OCY: Deutschland
!!!AGN: chorale
!!!AST: Baroque
!!!AIN: vox
!!!YOY: 1941
!!!PPP: New York; London
!!!PPR: G. Schirmer
!!!ENC: David Huron
!!!EED: David Huron
!!!YEN: United States of America
!!!YER: 1992
!!!YEC: Copyright 1992 David Huron
!!!YEM: Rights to all derivative electronic formats reserved.
!!!YER: March 20, 1996
!!!AMT: simple quadruple
!!!EEV: 1.1
!!chor2scor: -l 2 -s 0.6 -o %b.pmx
